X: 10312
T: Masaniello Quadrilles Part 2.
C: Arranged by W. B. LAYBOURN
R: reel
B: K\"ohler's Violin Repository, v.1, 1885 p.31 #2
F: http://www.archive.org/details/klersviolinrepos01edin
Z: 2011 John Chambers <jc:trillian.mit.edu>
M: 2/4
L: 1/16
K: A
ue2 |\
a4c'4 | e'6f'2 | e'2d'2b2f'2 | e'2c'2a2e2 |\
a4c'4 | e'2e'e' (.e'2.a'2) | a'2e'2 d'2b2 | a2c'2a2 ||
a2 |\
b2a2g2f2 | (g2e2) z2u~e2 | f2g2a2b2 | (c'2a2) z2~a2 |\
b2a2g2f2 | (g2e2) z2ue2 | f2c2^d2B2 | (f2e2) z2ue2 |
fedc B^ABd | fedc B^AB^B | c^BcG AGA^D | EFGA Bcde |
fedc B^ABd | fedc B^ABd | c^Bce ^dcdf "_Volti subito."| f2e2 z2 "_D.C."|]

%%sep 2 1 500

